icons-rebrand/svg/secure-call-lock-light.svg

<svg xmlns="http://www.w3.org/2000/svg" width="32" height="32" viewBox="0 0 32 32" fill="none"><path d="M26.5004 6H27.0004C27.3981 6.00043 27.7794 6.15861 28.0606 6.43982C28.3418 6.72103 28.5 7.10231 28.5004 7.5V11.5C28.5 11.8977 28.3418 12.279 28.0606 12.5602C27.7794 12.8414 27.3981 12.9996 27.0004 13H21.0004C20.6027 12.9996 20.2215 12.8414 19.9402 12.5602C19.659 12.279 19.5009 11.8977 19.5004 11.5V7.5C19.5009 7.10231 19.659 6.72103 19.9402 6.43982C20.2215 6.15861 20.6027 6.00043 21.0004 6H21.5004V4.5C21.5004 3.83696 21.7638 3.20107 22.2327 2.73223C22.7015 2.26339 23.3374 2 24.0004 2C24.6635 2 25.2994 2.26339 25.7682 2.73223C26.237 3.20107 26.5004 3.83696 26.5004 4.5V6ZM22.9398 3.43934C22.6585 3.72064 22.5004 4.10218 22.5004 4.5V6H25.5004V4.5C25.5004 4.10218 25.3424 3.72064 25.0611 3.43934C24.7798 3.15804 24.3983 3 24.0004 3C23.6026 3 23.2211 3.15804 22.9398 3.43934ZM27.3537 11.8533C27.4474 11.7596 27.5002 11.6325 27.5004 11.5V7.5C27.5002 7.36747 27.4474 7.24045 27.3537 7.14674C27.26 7.05303 27.133 7.00026 27.0004 7H21.0004C20.8679 7.00026 20.7409 7.05303 20.6472 7.14674C20.5535 7.24045 20.5007 7.36747 20.5004 7.5V11.5C20.5007 11.6325 20.5535 11.7596 20.6472 11.8533C20.7409 11.947 20.8679 11.9997 21.0004 12H27.0004C27.133 11.9997 27.26 11.947 27.3537 11.8533Z M23.8614 19.8759C23.2876 19.328 22.5244 19.0225 21.731 19.023C20.9375 19.0236 20.1748 19.3301 19.6017 19.8789C19.6017 19.8789 18.129 21.3759 17.84 21.6845C16.8473 21.7053 15.861 21.5226 14.9416 21.1477C14.0223 20.7729 13.1894 20.2138 12.4943 19.5048C11.0951 18.1034 10.2947 16.2134 10.2619 14.2334C10.6242 13.8691 12.1212 12.3984 12.1242 12.3955C12.6875 11.8304 13.0038 11.065 13.0038 10.2671C13.0038 9.46913 12.6875 8.70375 12.1242 8.13863L9.37024 5.38472C8.8028 4.81906 8.03425 4.50143 7.23303 4.50143C6.4318 4.50143 5.66326 4.81906 5.09582 5.38472L3.62414 6.8564C1.74133 8.74019 1.38097 15.4131 8.98352 23.0156C13.8966 27.9297 18.422 29.5166 21.5167 29.5166C22.8265 29.6107 24.1231 29.2025 25.1427 28.375L26.6144 26.9033C26.8952 26.6227 27.118 26.2895 27.2699 25.9228C27.4219 25.5561 27.5001 25.1631 27.5001 24.7661C27.5001 24.3691 27.4219 23.9761 27.2699 23.6094C27.118 23.2426 26.8952 22.9095 26.6144 22.6289L23.8614 19.8759ZM25.9073 26.1963L24.4357 27.6679C23.0528 29.0468 16.8497 29.4687 9.69055 22.3086C2.53137 15.1494 2.95031 8.94527 4.33117 7.56344L5.80285 6.09176C6.18265 5.71339 6.69692 5.50094 7.23303 5.50094C7.76914 5.50094 8.28341 5.71339 8.66321 6.09176L11.4171 8.84566C11.793 9.22244 12.0043 9.73277 12.0049 10.265C12.0054 10.7972 11.7951 11.308 11.42 11.6855C11.42 11.6855 9.91711 13.1621 9.55383 13.5263C8.97473 14.1054 9.48742 16.0586 9.54797 16.2802C9.9484 17.7597 10.719 19.1127 11.7872 20.2119C12.8871 21.2798 14.2403 22.0507 15.7198 22.4521C15.9405 22.5107 17.8937 23.0254 18.4737 22.4453C18.837 22.082 20.3116 20.583 20.3116 20.583C20.6945 20.2172 21.2036 20.0131 21.733 20.0131C22.2625 20.0131 22.7716 20.2172 23.1544 20.583L25.9073 23.3359C26.2859 23.7156 26.4984 24.2299 26.4984 24.7661C26.4984 25.3022 26.2859 25.8165 25.9073 26.1963Z"/></svg>

<svg width="32" height="32" fill="none" xmlns="http://www.w3.org/2000/svg"><path fill-rule="evenodd" clip-rule="evenodd" d="M26.5004 6h.5a1.5016 1.5016 0 011.5 1.5v4a1.5015 1.5015 0 01-1.5 1.5h-6a1.5017 1.5017 0 01-1.5-1.5v-4a1.502 1.502 0 011.5-1.5h.5V4.5a2.4998 2.4998 0 012.5-2.5 2.4999 2.4999 0 012.5 2.5V6zm-3.5606-2.5607A1.5 1.5 0 0022.5004 4.5V6h3V4.5a1.5 1.5 0 00-2.5606-1.0607zm4.4139 8.414a.5009.5009 0 00.1467-.3533v-4a.5007.5007 0 00-.5-.5h-6a.5009.5009 0 00-.5.5v4a.5014.5014 0 00.5.5h6a.5011.5011 0 00.3533-.1467z" fill="#0F0F0F"/><path d="M23.8614 19.8759a3.0822 3.0822 0 00-4.2597.003s-1.4727 1.497-1.7617 1.8056a7.2724 7.2724 0 01-5.3457-2.1797 7.64 7.64 0 01-2.2324-5.2714c.3623-.3643 1.8593-1.835 1.8623-1.8379a3.0149 3.0149 0 000-4.2569l-2.754-2.7539a3.0272 3.0272 0 00-4.2744 0L3.6241 6.8564C1.7413 8.7402 1.381 15.4131 8.9835 23.0156c4.9131 4.9141 9.4385 6.501 12.5332 6.501a5.1667 5.1667 0 003.626-1.1416l1.4717-1.4717a3.0204 3.0204 0 00.8857-2.1372 3.0205 3.0205 0 00-.8857-2.1372l-2.753-2.753zm2.0459 6.3204l-1.4716 1.4716c-1.3829 1.3789-7.586 1.8008-14.7452-5.3593C2.5315 15.1494 2.9504 8.9453 4.3312 7.5634l1.4717-1.4716a2.0264 2.0264 0 012.8603 0l2.7539 2.7539a2.0127 2.0127 0 01.0029 2.8398s-1.5029 1.4766-1.8662 1.8408c-.579.5791-.0664 2.5323-.0058 2.7539a9.0243 9.0243 0 002.2392 3.9317 9.0457 9.0457 0 003.9326 2.2402c.2207.0586 2.1739.5733 2.7539-.0068.3633-.3633 1.8379-1.8623 1.8379-1.8623a2.0577 2.0577 0 012.8428 0l2.7529 2.7529a2.0254 2.0254 0 010 2.8604z" fill="#0F0F0F"/></svg>
